assets/images/img_friends.svg

<svg width="88" height="17" viewBox="0 0 88 17" fill="none" xmlns="http://www.w3.org/2000/svg">
<path d="M5.13727 10.996L5.22816 15.7632C5.24331 16.198 5.17514 16.4753 5.02366 16.5952C4.88732 16.7152 4.67525 16.7751 4.38744 16.7751H1.13817C0.789766 16.7751 0.554971 16.7077 0.433786 16.5728C0.312601 16.4378 0.244435 16.153 0.229287 15.7183L0.00206564 1.41667C-0.0130824 0.981922 0.055084 0.682099 0.206565 0.517196C0.373194 0.337302 0.653434 0.247355 1.04728 0.247355H10.0225C10.3406 0.247355 10.5754 0.307319 10.7269 0.427249C10.8784 0.547179 10.9541 0.764551 10.9541 1.07937V3.95767C10.9541 4.2575 10.8784 4.47487 10.7269 4.60979C10.5754 4.72972 10.3406 4.78968 10.0225 4.78968H5.02366L5.04638 6.67857H9.22725C9.54536 6.67857 9.78016 6.73854 9.93164 6.85847C10.0831 6.97839 10.1589 7.19577 10.1589 7.51058V10.164C10.1589 10.4788 10.0831 10.6962 9.93164 10.8161C9.78016 10.9361 9.54536 10.996 9.22725 10.996H5.13727Z" fill="#222222"/>
<path d="M17.4937 7.84788C18.448 7.78792 19.1221 7.61552 19.5159 7.33069C19.9098 7.04586 20.1067 6.56614 20.1067 5.89153C20.1067 5.51675 20.031 5.20943 19.8795 4.96958C19.7432 4.71473 19.5538 4.51984 19.3114 4.38492C19.0691 4.26499 18.7813 4.19753 18.448 4.18254C18.1299 4.16755 17.7891 4.19004 17.4255 4.25L17.4937 7.84788ZM12.313 2.15873C12.2979 1.85891 12.2903 1.61905 12.2903 1.43915C12.3055 1.24427 12.3509 1.08686 12.4266 0.966931C12.4872 0.861993 12.6008 0.779542 12.7675 0.719577C12.9492 0.644621 13.1992 0.56217 13.5173 0.472222C14.1687 0.307319 14.8958 0.179895 15.6986 0.0899479C16.5166 1.60838e-07 17.3422 -0.022487 18.1753 0.0224869C19.0085 0.0674607 19.8189 0.202382 20.6066 0.427249C21.3943 0.637125 22.0987 0.95194 22.7198 1.37169C23.3257 1.80644 23.8104 2.36111 24.174 3.03571C24.5527 3.71032 24.742 4.53483 24.742 5.50926C24.742 6.25882 24.6663 6.91843 24.5148 7.4881C24.3633 8.04277 24.1588 8.52998 23.9013 8.94974C23.6287 9.36949 23.3181 9.73677 22.9697 10.0516C22.6213 10.3664 22.2426 10.6437 21.8336 10.8836L24.0831 14.3915C24.3103 14.7663 24.3709 15.0661 24.2649 15.291C24.1588 15.5009 23.9695 15.6583 23.6968 15.7632L21.311 16.6402C20.8868 16.8051 20.5687 16.8276 20.3567 16.7077C20.1597 16.6027 19.9855 16.4228 19.8341 16.168L17.6073 12.1653V15.7632C17.6073 16.153 17.5467 16.4153 17.4255 16.5503C17.3043 16.7002 17.0771 16.7751 16.7438 16.7751H13.6536C13.3355 16.7751 13.1159 16.7002 12.9947 16.5503C12.8735 16.4153 12.8053 16.153 12.7902 15.7632L12.313 2.15873Z" fill="#222222"/>
<path d="M26.4943 1.25926C26.4943 0.869488 26.5549 0.607143 26.6761 0.472222C26.8124 0.32231 27.0396 0.247355 27.3577 0.247355H30.6297C30.963 0.247355 31.1826 0.32231 31.2887 0.472222C31.4099 0.607143 31.478 0.869488 31.4932 1.25926L31.7204 15.7632C31.7355 16.153 31.675 16.4153 31.5386 16.5503C31.4174 16.7002 31.1902 16.7751 30.857 16.7751H27.585C27.2669 16.7751 27.0472 16.7002 26.926 16.5503C26.8048 16.4153 26.7367 16.153 26.7215 15.7632L26.4943 1.25926Z" fill="#222222"/>
<path d="M38.6689 10.6587L38.7144 12.2328H43.077C43.3951 12.2328 43.6299 12.3003 43.7814 12.4352C43.9329 12.5551 44.0086 12.765 44.0086 13.0648V15.9206C44.0086 16.2354 43.9329 16.4528 43.7814 16.5728C43.6299 16.7077 43.3951 16.7751 43.077 16.7751H34.7834C34.3896 16.7751 34.1245 16.6852 33.9882 16.5053C33.8518 16.3404 33.7761 16.0331 33.761 15.5833L33.5565 1.41667C33.5413 0.981922 33.6095 0.682099 33.761 0.517196C33.9276 0.337302 34.2078 0.247355 34.6017 0.247355H43.8041C44.1222 0.247355 44.357 0.307319 44.5085 0.427249C44.66 0.547179 44.7357 0.764551 44.7357 1.07937V3.95767C44.7357 4.2575 44.66 4.47487 44.5085 4.60979C44.357 4.72972 44.1222 4.78968 43.8041 4.78968H38.5553L38.578 6.1164H43.0089C43.327 6.1164 43.5618 6.17637 43.7132 6.2963C43.8647 6.41623 43.9405 6.6336 43.9405 6.94841V9.82672C43.9405 10.1415 43.8647 10.3589 43.7132 10.4788C43.5618 10.5988 43.327 10.6587 43.0089 10.6587H38.6689Z" fill="#222222"/>
<path d="M51.514 9.21958L51.6277 15.7632C51.6428 16.123 51.5898 16.3779 51.4686 16.5278C51.3626 16.6927 51.1278 16.7751 50.7642 16.7751H47.4013C47.0226 16.7751 46.7803 16.6927 46.6742 16.5278C46.5833 16.3779 46.5303 16.123 46.5152 15.7632L46.2879 1.41667C46.2728 0.981922 46.341 0.682099 46.4924 0.517196C46.6591 0.337302 46.9393 0.247355 47.3332 0.247355H50.128C50.5824 0.247355 50.893 0.292328 51.0596 0.382275C51.2414 0.457231 51.4004 0.644621 51.5368 0.944445L55.036 7.9828V1.41667C55.036 0.981922 55.1117 0.682099 55.2632 0.517196C55.4147 0.337302 55.6873 0.247355 56.0812 0.247355H58.876C59.2699 0.247355 59.5425 0.337302 59.694 0.517196C59.8455 0.682099 59.9212 0.981922 59.9212 1.41667V15.5833C59.9212 16.0331 59.8455 16.3404 59.694 16.5053C59.5577 16.6852 59.2926 16.7751 58.8987 16.7751H56.7401C56.3008 16.7751 55.9676 16.6927 55.7404 16.5278C55.5131 16.3629 55.2859 16.078 55.0587 15.6733L51.514 9.21958Z" fill="#222222"/>
<path d="M62.0727 1.48413C62.0727 1.04938 62.1409 0.757055 62.2772 0.607143C62.4136 0.44224 62.7392 0.344797 63.2543 0.314815C64.1632 0.25485 65.0796 0.247355 66.0037 0.292329C66.9428 0.337302 67.8442 0.457231 68.7076 0.652116C69.571 0.847002 70.3815 1.13183 71.1389 1.50661C71.8963 1.88139 72.5552 2.36861 73.1157 2.96825C73.6762 3.5679 74.1155 4.29497 74.4336 5.14947C74.7668 6.00397 74.9335 7.00838 74.9335 8.1627C74.9335 9.57187 74.6759 10.8161 74.1609 11.8955C73.6459 12.9599 72.896 13.8519 71.9114 14.5714C70.9116 15.291 69.6846 15.8307 68.2304 16.1905C66.7762 16.5653 65.1099 16.7526 63.2316 16.7526C62.5802 16.7526 62.2545 16.3929 62.2545 15.6733L62.0727 1.48413ZM67.1398 11.918C67.5639 11.8131 67.9502 11.6856 68.2986 11.5357C68.647 11.3708 68.9424 11.1459 69.1848 10.8611C69.4271 10.5913 69.6165 10.239 69.7528 9.80423C69.8891 9.36949 69.9573 8.81481 69.9573 8.14021C69.9573 7.57055 69.8816 7.07584 69.7301 6.65608C69.5786 6.23633 69.3665 5.89153 69.0939 5.62169C68.8212 5.35185 68.5031 5.15697 68.1395 5.03704C67.776 4.90212 67.3821 4.84965 66.958 4.87963L67.1398 11.918Z" fill="#222222"/>
<path d="M78.1007 11.828C78.3582 11.918 78.6385 12.0079 78.9414 12.0979C79.2595 12.1878 79.5852 12.2703 79.9185 12.3452C80.2517 12.4202 80.5774 12.4802 80.8955 12.5251C81.2288 12.5701 81.5393 12.5926 81.8271 12.5926C82.1301 12.5926 82.3649 12.5326 82.5315 12.4127C82.6982 12.2928 82.7815 12.1054 82.7815 11.8505C82.7815 11.5957 82.6603 11.3783 82.4179 11.1984C82.1756 11.0035 81.6984 10.7562 80.9864 10.4563C80.3956 10.2015 79.82 9.93915 79.2595 9.66931C78.7142 9.38448 78.2295 9.03968 77.8053 8.63492C77.366 8.23016 77.0176 7.74295 76.7601 7.17328C76.5026 6.60362 76.3738 5.90653 76.3738 5.08201C76.3738 4.4224 76.5026 3.79277 76.7601 3.19312C77.0176 2.57848 77.4039 2.03131 77.9189 1.55159C78.4188 1.08686 79.0475 0.719577 79.8049 0.449735C80.5774 0.164903 81.4787 0.0224869 82.5088 0.0224869C83.4025 0.0224869 84.2584 0.0899473 85.0764 0.224868C85.8944 0.344798 86.7275 0.569665 87.5758 0.89947C87.7576 0.974427 87.8788 1.07187 87.9394 1.1918C88 1.29674 88.0151 1.47663 87.9848 1.73148L87.6895 4.99206C87.6592 5.42681 87.4244 5.53924 86.9851 5.32936C86.3034 5.01455 85.5914 4.78219 84.8492 4.63227C84.1221 4.48236 83.4934 4.40741 82.9632 4.40741C82.524 4.40741 82.1604 4.46737 81.8726 4.5873C81.5999 4.70723 81.4636 4.9321 81.4636 5.2619C81.4636 5.4418 81.5242 5.59921 81.6454 5.73413C81.7665 5.86905 81.9483 6.00397 82.1907 6.13889C82.4331 6.27381 82.736 6.42372 83.0996 6.58862C83.4631 6.73854 83.8797 6.93342 84.3493 7.17328C84.8492 7.42813 85.3112 7.69048 85.7354 7.96032C86.1595 8.23016 86.5306 8.54497 86.8487 8.90476C87.1668 9.27954 87.4168 9.72178 87.5986 10.2315C87.7803 10.7412 87.8712 11.3558 87.8712 12.0754C87.8712 12.8699 87.7349 13.5745 87.4622 14.1892C87.1896 14.8038 86.8109 15.3135 86.3261 15.7183C85.8262 16.138 85.2355 16.4528 84.5538 16.6627C83.8721 16.8876 83.1223 17 82.3043 17C81.2742 17 80.3351 16.9175 79.4868 16.7526C78.6536 16.6027 77.9038 16.4153 77.2373 16.1905C76.9798 16.1005 76.8131 16.0106 76.7374 15.9206C76.6617 15.8157 76.6389 15.6583 76.6692 15.4484L77.3054 12.2328C77.3812 11.7981 77.6463 11.6631 78.1007 11.828Z" fill="#222222"/>
</svg>

<svg xmlns="http://www.w3.org/2000/svg" width="88" height="17" fill="none" viewBox="0 0 88 17"><path fill="#222" d="m5.137 10.996.091 4.767c.015.435-.053.712-.204.832-.137.12-.349.18-.637.18H1.138c-.348 0-.583-.067-.704-.202s-.19-.42-.205-.855L.002 1.417C-.013.982.055.682.207.517c.166-.18.446-.27.84-.27h8.976c.318 0 .552.06.704.18.151.12.227.338.227.652v2.879c0 .3-.076.517-.227.652-.152.12-.386.18-.704.18h-5l.023 1.889h4.181c.318 0 .553.06.705.18.151.12.227.337.227.652v2.653c0 .315-.076.532-.227.652-.152.12-.387.18-.705.18h-4.09Zm12.357-3.148c.954-.06 1.628-.232 2.022-.517.394-.285.59-.765.59-1.44 0-.374-.075-.682-.227-.921a1.417 1.417 0 0 0-.568-.585 2.15 2.15 0 0 0-.863-.202 4.882 4.882 0 0 0-1.023.067l.069 3.598Zm-5.181-5.69c-.015-.3-.023-.539-.023-.719a1.02 1.02 0 0 1 .137-.472c.06-.105.174-.187.34-.247a7.18 7.18 0 0 1 .75-.248A16.337 16.337 0 0 1 15.7.09a15.15 15.15 0 0 1 2.476-.068c.834.045 1.644.18 2.432.405.787.21 1.492.525 2.113.945.606.434 1.09.99 1.454 1.664.379.674.568 1.499.568 2.473 0 .75-.076 1.41-.227 1.98a5.605 5.605 0 0 1-.614 1.46c-.272.42-.583.788-.931 1.103a6.887 6.887 0 0 1-1.136.832l2.25 3.508c.226.374.287.674.18.899-.105.21-.294.367-.567.472l-2.386.877c-.424.165-.742.188-.954.068-.197-.105-.372-.285-.523-.54l-2.227-4.003v3.598c0 .39-.06.652-.181.787-.122.15-.349.225-.682.225h-3.09c-.319 0-.538-.075-.66-.225-.12-.135-.189-.397-.204-.787L12.313 2.16Zm14.181-.898c0-.39.06-.653.182-.788.136-.15.364-.225.682-.225h3.272c.333 0 .553.075.659.225.12.135.189.397.204.787l.227 14.504c.015.39-.045.652-.181.787-.122.15-.349.225-.682.225h-3.272c-.318 0-.538-.075-.659-.225-.121-.135-.19-.397-.204-.787L26.493 1.26Zm12.175 9.399.045 1.574h4.363c.318 0 .553.067.704.202.152.12.228.33.228.63v2.856c0 .314-.076.532-.228.652-.151.135-.386.202-.704.202h-8.294c-.393 0-.659-.09-.795-.27-.136-.165-.212-.472-.227-.922l-.205-14.166c-.015-.435.053-.735.205-.9.167-.18.447-.27.84-.27h9.203c.318 0 .553.06.704.18.152.12.228.338.228.652v2.879c0 .3-.076.517-.227.652-.152.12-.387.18-.705.18h-5.249l.023 1.326h4.43c.319 0 .554.06.705.18.152.12.227.338.227.652v2.879c0 .315-.075.532-.227.652-.151.12-.386.18-.704.18h-4.34ZM51.514 9.22l.114 6.543c.015.36-.038.615-.16.765-.105.165-.34.247-.704.247h-3.363c-.378 0-.62-.082-.727-.247-.09-.15-.144-.405-.159-.765l-.227-14.346c-.015-.435.053-.735.204-.9.167-.18.447-.27.841-.27h2.795c.454 0 .765.045.932.135.181.075.34.263.477.562l3.499 7.039V1.417c0-.435.076-.735.227-.9.152-.18.424-.27.818-.27h2.795c.394 0 .666.09.818.27.151.165.227.465.227.9v14.166c0 .45-.075.757-.227.922-.136.18-.401.27-.795.27H56.74c-.44 0-.772-.082-1-.247-.227-.165-.454-.45-.681-.855L51.514 9.22Zm10.559-7.736c0-.435.068-.727.204-.877.137-.165.462-.262.977-.292.91-.06 1.826-.068 2.75-.023.939.045 1.84.165 2.704.36.863.195 1.674.48 2.43.855a6.82 6.82 0 0 1 1.978 1.461c.56.6 1 1.327 1.318 2.181.333.855.5 1.86.5 3.014 0 1.409-.258 2.653-.773 3.732a7.115 7.115 0 0 1-2.25 2.676c-1 .72-2.226 1.26-3.68 1.62-1.455.374-3.121.562-5 .562-.65 0-.977-.36-.977-1.08l-.181-14.189Zm5.067 10.434a7.5 7.5 0 0 0 1.159-.382 2.62 2.62 0 0 0 .886-.675c.242-.27.431-.622.568-1.057.136-.435.204-.99.204-1.664 0-.57-.075-1.064-.227-1.484a2.735 2.735 0 0 0-.636-1.034 2.415 2.415 0 0 0-.954-.585 2.793 2.793 0 0 0-1.182-.157l.182 7.038Zm10.96-.09c.258.09.538.18.841.27.319.09.644.172.977.247.334.075.66.135.977.18.334.045.644.068.932.068.303 0 .538-.06.704-.18.167-.12.25-.308.25-.563 0-.254-.12-.472-.363-.652-.242-.194-.72-.442-1.432-.742a45.734 45.734 0 0 1-1.727-.787 6.352 6.352 0 0 1-1.454-1.034 4.46 4.46 0 0 1-1.045-1.462c-.257-.57-.386-1.266-.386-2.091 0-.66.129-1.29.386-1.889a4.723 4.723 0 0 1 1.159-1.641c.5-.465 1.129-.832 1.886-1.102.772-.285 1.674-.428 2.704-.428.894 0 1.75.068 2.567.203.818.12 1.652.345 2.5.674.182.075.303.173.363.293.061.105.076.285.046.54l-.296 3.26c-.03.435-.265.547-.704.337a9.62 9.62 0 0 0-2.136-.697c-.727-.15-1.356-.225-1.886-.225-.439 0-.803.06-1.09.18-.273.12-.41.345-.41.675 0 .18.061.337.182.472.121.135.303.27.546.405.242.135.545.285.909.45.363.15.78.344 1.25.584.5.255.961.517 1.385.787.424.27.796.585 1.114.945.318.375.568.817.75 1.327.181.51.272 1.124.272 1.843 0 .795-.136 1.5-.409 2.114a4.148 4.148 0 0 1-1.136 1.53c-.5.419-1.09.734-1.772.944a7.146 7.146 0 0 1-2.25.337c-1.03 0-1.969-.082-2.817-.247a15.835 15.835 0 0 1-2.25-.563c-.257-.09-.424-.18-.5-.27-.075-.104-.098-.262-.068-.472l.636-3.215c.076-.435.341-.57.796-.405Z"/></svg>
